src/images/svg/book.svg

<svg width="69" height="48" viewBox="0 0 69 48" fill="none" xmlns="http://www.w3.org/2000/svg">
<path d="M30.4 6.91182H9.94055V8.44373H30.4V6.91182Z" fill="white"/>
<path d="M30.3999 12.6236H13.0043V14.1555H30.3999V12.6236Z" fill="white"/>
<path d="M30.4 18.3359H9.94055V19.8678H30.4V18.3359Z" fill="white"/>
<path d="M30.3999 24.0476H13.0043V25.5795H30.3999V24.0476Z" fill="white"/>
<path d="M30.4 29.7594H9.94055V31.2913H30.4V29.7594Z" fill="white"/>
<path d="M30.3999 35.4716H13.0043V37.0036H30.3999V35.4716Z" fill="white"/>
<path d="M58.4851 6.91182H38.0256V8.44373H58.4851V6.91182Z" fill="white"/>
<path d="M55.4212 12.6236H38.0256V14.1555H55.4212V12.6236Z" fill="white"/>
<path d="M58.4851 18.3359H38.0256V19.8678H58.4851V18.3359Z" fill="white"/>
<path d="M55.4212 24.0476H38.0256V25.5795H55.4212V24.0476Z" fill="white"/>
<path d="M58.4851 29.7594H38.0256V31.2913H58.4851V29.7594Z" fill="white"/>
<path d="M55.4212 35.4716H38.0256V37.0036H55.4212V35.4716Z" fill="white"/>
<path d="M65.8724 5.16797H63.0638V0.949719C63.0638 0.526847 62.7207 0.183762 62.2979 0.183762H39.4009C37.1665 0.183762 35.2298 1.39173 34.2135 3.19997C33.197 1.39154 31.2591 0.183762 29.0246 0.183762H6.12766C5.70479 0.183762 5.3617 0.526847 5.3617 0.949719V5.16797H2.55319C2.13032 5.16797 1.78723 5.51105 1.78723 5.93393V47.0503C1.78723 47.4732 2.13032 47.8162 2.55319 47.8162C10.2434 47.8162 58.1546 47.8162 65.8724 47.8162C66.2952 47.8162 66.6383 47.4732 66.6383 47.0503V5.93393C66.6383 5.51105 66.2952 5.16797 65.8724 5.16797ZM39.4009 1.71568H61.5319C61.5319 8.57486 61.5319 26.6435 61.5319 42.7408H37.7668C36.7133 42.7408 35.66 43.185 34.9787 43.7611V6.12791C34.9787 3.68264 36.9364 1.71568 39.4009 1.71568ZM6.89361 1.71568H29.0246C31.4197 1.71568 33.358 3.57971 33.4373 5.95936C33.4383 5.99227 33.4413 6.0955 33.4468 6.12791V6.13389V6.13539V43.7581C32.7673 43.1843 31.7254 42.7408 30.6687 42.7408H6.89361C6.89361 26.6489 6.89361 8.57266 6.89361 1.71568ZM3.31915 6.69988H5.3617V43.5067C5.3617 43.9296 5.70479 44.2727 6.12766 44.2727H30.6687C31.8363 44.2727 32.9647 45.0387 33.3259 46.2843H3.31915V6.69988ZM65.1064 46.2843H35.1001C35.4637 45.0326 36.5808 44.2727 37.7668 44.2727H62.2979C62.7207 44.2727 63.0638 43.9296 63.0638 43.5067V6.69988H65.1064V46.2843Z" fill="white"/>
</svg>

<svg xmlns="http://www.w3.org/2000/svg" fill="none" viewBox="0 0 69 48"><path fill="#fff" d="M30.4 6.912H9.94v1.532H30.4V6.912zM30.4 12.624H13.004v1.531H30.4v-1.531zM30.4 18.336H9.94v1.532H30.4v-1.532zM30.4 24.048H13.004v1.532H30.4v-1.532zM30.4 29.76H9.94v1.531H30.4V29.76zM30.4 35.472H13.004v1.532H30.4v-1.532zM58.485 6.912h-20.46v1.532h20.46V6.912zM55.421 12.624H38.026v1.531H55.42v-1.531zM58.485 18.336h-20.46v1.532h20.46v-1.532zM55.421 24.048H38.026v1.532H55.42v-1.532zM58.485 29.76h-20.46v1.531h20.46V29.76zM55.421 35.472H38.026v1.532H55.42v-1.532z"/><path fill="#fff" d="M65.872 5.168h-2.808V.95a.766.766 0 0 0-.766-.766H39.4A5.923 5.923 0 0 0 34.213 3.2 5.926 5.926 0 0 0 29.026.184H6.128a.766.766 0 0 0-.766.766v4.218H2.553a.766.766 0 0 0-.766.766V47.05c0 .423.343.766.766.766h63.32a.766.766 0 0 0 .765-.766V5.934a.766.766 0 0 0-.766-.766zM39.401 1.716h22.13V42.74H37.768c-1.054 0-2.107.444-2.788 1.02V6.128A4.398 4.398 0 0 1 39.4 1.716zm-32.507 0h22.13a4.385 4.385 0 0 1 4.413 4.243c.001.033.004.137.01.169V43.758c-.68-.574-1.722-1.017-2.778-1.017H6.894V1.716zM3.319 6.7h2.043v36.807c0 .423.343.766.766.766h24.54c1.168 0 2.297.766 2.658 2.011H3.319V6.7zm61.787 39.584H35.1a2.768 2.768 0 0 1 2.667-2.011h24.53a.766.766 0 0 0 .767-.766V6.7h2.042v39.584z"/></svg>
